X:1
T: The Gobby-O
C:
R:Jig
Q:180
K:Am
M:6/8
L:1/16
B2|c4A2 A2c2A2|E4A2 A4c2|B4G2 G2B2c2|d2B2G2 G2A2B2|c4A2 A2c2A2|E4A2 A4e2|e2d2c2 B2A2G2|E4A2 A4B2|
c4A2 A2c2A2|E4A2 A4c2|B4G2 G2B2c2|d2B2G2 G2A2B2|c4A2 A2c2A2|E4A2 A4e2|e2d2c2 B2A2G2|E4A2 A4B2|
A4B2 c4d2|e4^f2 g4e2|^f2a2f2 g4e2|d2B2G2 G2A2B2|A4B2 c4d2|e4^f2 g4f2|e2d2c2 B2A2G2|E4A2 A4B2|
A4B2 c4d2|e4^f2 g4e2|^f2a2f2 g4e2|d2B2G2 G2A2B2|c4c2 c2B2A2|B2c2d2 e2^f2g2|e2d2c2 B2A2G2|E4A2 A4|
